!! J.S. Bach "Largo" from Sonata No. 3, for solo violin, BWV 1005.
!! From 'Neue Ausgabe Saemtlicher Werke' Serie VI: Kammermusikwerke,
!! Band 1 ('Werke fuer Violine') Baerenreiter Kassel (Basel) 1958; p.50
!! This file has been error-checked using the double-entry method.
!! NOTE:  This 'monophonic' work has been recoded here as a four-part work.
!! NOTE:  A considerable degree of latitude has been exercised in the
!!        assignment of parts and voices.
**kern	**kern	**kern	**kern
*M4/4	*M4/4	*M4/4	*M4/4
=1	=1	=1	=1
1r	8f	1r	{16a
.	.	.	16b-
.	8r	.	16cc}
.	.	.	16ff
.	4r	.	{16gg
.	.	.	16ee}
.	.	.	{16ff
.	.	.	16a}
.	8e	.	{16dd
.	.	.	16b-}
.	8r	.	8cc
.	4r	.	16r
.	.	.	16b-
.	.	.	16a
.	.	.	16g
=2	=2	=2	=2
1r	8d	2r	{16f
.	.	.	16e
.	8r	.	16d}
.	.	.	16f
.	4r	.	{16g
.	.	.	16a}
.	.	.	{16b-
.	.	.	16dd}
.	8c	8e	{16b-T
.	.	.	16a}
.	8r	8r	8a
.	4r	4r	16r
.	.	.	16a
.	.	.	16b-
.	.	.	16cc
=3	=3	=3	=3
1r	8B-	8f	{16dd
.	.	.	16a
.	8r	8r	16b-}
.	.	.	16dd
.	4r	4r	{16gg
.	.	.	16aa}
.	.	.	{16bb-
.	.	.	16gg}
.	4r	8b-	{16ff
.	.	.	16ee
.	.	8r	16dd}
.	.	.	16cc
.	8r	4r	16ff
.	.	.	16f
.	8A	.	16e
.	.	.	16f
=4	=4	=4	=4
1r	8B-	1r	{16g
.	.	.	16e
.	8r	.	16f}
.	.	.	16dd
.	8c	.	16e
.	.	.	16g
.	8r	.	16cc
.	.	.	16b-
.	8f	.	8aT
.	8r	.	{16g
.	.	.	16f}
.	16r	.	8dd
.	16e	.	.
.	16f	.	8dd
.	16d	.	.
=5	=5	=5	=5
1r	16e	1r	8dd
.	16A	.	.
.	8a	.	8cc
.	16r	.	8ff
.	16g	.	.
.	16a	.	8ff
.	16f	.	.
.	16g	.	8ff
.	16c	.	.
.	8cc	.	[8ee
.	8f	.	16ee]
.	.	.	16aa
.	8r	.	16dd
.	.	.	16cc
=6	=6	=6	=6
1r	8f	1r	{16bn
.	.	.	16g}
.	8r	.	8gg
.	8e	.	16r
.	.	.	16cc
.	8r	.	16dd
.	.	.	16ee
.	8f	.	16ee
.	.	.	16cc
.	8r	.	16bT
.	.	.	16a
.	8f	.	16r
.	.	.	16dd
.	8r	.	16ee
.	.	.	16ff
=7	=7	=7	=7
1r	8g	8bn	16ff
.	.	.	16dd
.	8r	8r	16cc
.	.	.	16bn
.	8r	4r	16aa
.	.	.	16ff
.	16r	.	16gg
.	16f	.	16b
.	16e	8.r	8cc
.	16d	.	.
.	16c	.	16r
.	16f	16cc	16aa
.	4g	4r	8.bT
.	.	.	16cc
=8	=8	=8	=8
1r	8c	8cc	{16e
.	.	.	16f
.	8r	8r	16g}
.	.	.	16cc
.	4r	2.r	{16dd
.	.	.	16bn}
.	.	.	{16cc
.	.	.	16a}
.	8c	.	{16fT
.	.	.	16e}
.	8r	.	8f
.	4r	.	16r
.	.	.	{16d
.	.	.	16f
.	.	.	16a}
=9	=9	=9	=9
1r	4r	1r	{16dd
.	.	.	16ff}
.	.	.	{16dd
.	.	.	16bn}
.	8B	.	{8g
.	8r	.	16fT}
.	.	.	32e
.	.	.	32f
.	8c	.	8eT
.	8r	.	{16d
.	.	.	16c}
.	16r	.	8b-
.	16d	.	.
.	16e	.	8b-
.	16c	.	.
=10	=10	=10	=10
1r	8f	1r	16b-
.	.	.	16g
.	8r	.	16a
.	.	.	{32cc
.	.	.	32b-}
.	16r	.	8cc
.	16e	.	.
.	16f#	.	8cc
.	16d	.	.
.	8g	.	{16cc
.	.	.	16a
.	8r	.	16b-}
.	.	.	16dd
.	4r	.	{16ee-
.	.	.	16dd}
.	.	.	{16ee-
.	.	.	16bb-}
=11	=11	=11	=11
1r	8f	8ee-	{16aa
.	.	.	16gg
.	8r	8r	16aa}
.	.	.	16cc
.	4r	4r	{16dd
.	.	.	16cc}
.	.	.	{16dd
.	.	.	16aa-}
.	8e-	8dd	{16gg
.	.	.	16ff#
.	8r	8r	16gg}
.	.	.	16bn
.	4r	4r	{16cc
.	.	.	16b}
.	.	.	{16cc
.	.	.	16ee-}
=12	=12	=12	=12
1r	8A	2.r	{16f#
.	.	.	16a
.	8r	.	8cc}
.	8f#	.	16r
.	.	.	16ee-
.	8r	.	16dd
.	.	.	16cc
.	8g	.	{16b-
.	.	.	16cc
.	8r	.	16dd}
.	.	.	16bb-
.	8d	8cc	{8aan
.	8r	8r	32ggT}
.	.	.	32ff#
.	.	.	16gg
=13	=13	=13	=13
8G	8d	8b-	{16gg
.	.	.	32bb-
.	.	.	32aa
8r	8r	8r	8bb-}
2.r	4r	2.r	16.fn
.	.	.	{32aa
.	.	.	32gg
.	.	.	32ffn
.	.	.	32een
.	.	.	32dd}
.	8e	.	{16cc
.	.	.	16bn
.	8r	.	16cc}
.	.	.	16dd
.	4r	.	{16ee
.	.	.	32gg
.	.	.	32ff
.	.	.	16gg}
.	.	.	16aa
=14	=14	=14	=14
2r	8f	8cc	16bb-
.	.	.	16gg
.	8r	8r	8aa
.	4r	4r	16.e
.	.	.	{32gg
.	.	.	32ff
.	.	.	32ee
.	.	.	32dd
.	.	.	32cc}
8d	2r	2r	{16b-
.	.	.	16a
8r	.	.	16b-}
.	.	.	16dd
4r	.	.	{16gg
.	.	.	16ee}
.	.	.	{16ff
.	.	.	16b-}
=15	=15	=15	=15
8c	1r	1r	{16a
.	.	.	16g
8r	.	.	16a}
.	.	.	16cc
4r	.	.	{16gg
.	.	.	16ee}
.	.	.	{16ff
.	.	.	16a}
8Bn	.	.	{16g
.	.	.	16bn}
8r	.	.	{16dd
.	.	.	16ff}
4r	.	.	{16aa
.	.	.	32gg
.	.	.	32ff
.	.	.	16ee}
.	.	.	16ff
=16	=16	=16	=16
8B-	8g	8cc	{16ee
.	.	.	32ff
.	.	.	32ee
8r	8r	8r	16dd
.	.	.	16cc}
8A	4r	2.r	16r
.	.	.	{16f
8r	.	.	16g
.	.	.	16a}
8B-	8d	.	16a
.	.	.	{16f
8r	8r	.	16eT
.	.	.	16d}
8B-	4r	.	16r
.	.	.	{16g
8r	.	.	16a
.	.	.	16b-}
=17	=17	=17	=17
8c	8e	1r	16b-
.	.	.	{16g
8r	8r	.	16fT
.	.	.	16e}
8r	4r	.	{16dd
.	.	.	16b-
16r	.	.	16cc}
16B-	.	.	16e
{16A	8.r	.	8f
16G	.	.	.
16A}	.	.	16r
16B-	16f	.	16dd
4c	4r	.	8.eT
.	.	.	16f
=18	=18	=18	=18
1r	1r	1r	{16f
.	.	.	16g
.	.	.	16a}
.	.	.	16cc
.	.	.	{16e-
.	.	.	16d}
.	.	.	{16e-
.	.	.	16cc}
.	.	.	{32d
.	.	.	32f
.	.	.	32g
.	.	.	32a
.	.	.	16b-}
.	.	.	16dd
.	.	.	{16gg
.	.	.	16dd}
.	.	.	{16bn
.	.	.	16f}
=19	=19	=19	=19
1r	1r	1r	{32en
.	.	.	32g
.	.	.	32a
.	.	.	32bn
.	.	.	32cc
.	.	.	32dd
.	.	.	32ee
.	.	.	32ff
.	.	.	32gg
.	.	.	32ee
.	.	.	32cc
.	.	.	32dd
.	.	.	32ee
.	.	.	32ff
.	.	.	32gg
.	.	.	32aa
.	.	.	32bb-
.	.	.	32aa
.	.	.	32bb-
.	.	.	32ddd}
.	.	.	8ccc
.	.	.	16.b-
.	.	.	{32ee
.	.	.	32ff
.	.	.	32ee
.	.	.	32dd
.	.	.	32cc}
=20	=20	=20	=20
8a	2r	2r	{16ff
.	.	.	32ee
.	.	.	32dd
16r	.	.	16cc}
16f	.	.	16dd
4c	.	.	{8a
.	.	.	32g}
.	.	.	32f
.	.	.	16g
16Bn	16a-	16dd	{16ff
16r	16r	16r	32aa-
.	.	.	32gg}
8r	8r	8r	8aa-
4r	4r	4r	16.bn
.	.	.	{32aa-
.	.	.	32gg
.	.	.	32ff
.	.	.	32ee
.	.	.	32ff}
=21	=21	=21	=21
8c	8an	4r	{32cc
.	.	.	32ee
.	.	.	32ff
.	.	.	32bb-
8r	8r	.	32aan
.	.	.	32gg
.	.	.	32ee
.	.	.	32ff}
4c	4g	4b-	8.eeT
.	.	.	16ff
2f	2a	2r	2ff
==	==	==	==
*-	*-	*-	*-
